dist/svgs/unicons/line/rss-interface.svg

<svg xmlns="http://www.w3.org/2000/svg" data-name="Layer 1" viewBox="0 0 24 24"><path d="M3 14a1 1 0 000 2 3 3 0 013 3 1 1 0 002 0 5 5 0 00-5-5zm-.71 4.29a1 1 0 101.42 0 1 1 0 00-1.42 0zM19 4H5a3 3 0 00-3 3 1 1 0 002 0 1 1 0 011-1h14a1 1 0 011 1v10a1 1 0 01-1 1h-4a1 1 0 000 2h4a3 3 0 003-3V7a3 3 0 00-3-3zM3 10a1 1 0 000 2 7 7 0 017 7 1 1 0 002 0 9 9 0 00-9-9z"/></svg>

<svg xmlns="http://www.w3.org/2000/svg" data-name="Layer 1" viewBox="0 0 24 24"><path d="M3,14a1,1,0,0,0,0,2,3,3,0,0,1,3,3,1,1,0,0,0,2,0A5,5,0,0,0,3,14Zm-.71,4.29a1,1,0,1,0,1.42,0A1,1,0,0,0,2.29,18.29ZM19,4H5A3,3,0,0,0,2,7,1,1,0,0,0,4,7,1,1,0,0,1,5,6H19a1,1,0,0,1,1,1V17a1,1,0,0,1-1,1H15a1,1,0,0,0,0,2h4a3,3,0,0,0,3-3V7A3,3,0,0,0,19,4ZM3,10a1,1,0,0,0,0,2,7,7,0,0,1,7,7,1,1,0,0,0,2,0A9,9,0,0,0,3,10Z"/></svg>
